Adwaita++-Light/panel/16/network-cellular-offline.svg

<svg height="16" width="16" xmlns="http://www.w3.org/2000/svg">
  <g fill="#444">
    <path d="m15 1.01-14 14h9v-5h5z" opacity=".3"/>
    <path d="m11 11.01v1c0 .28.1.54.28.72l.78.78-.78.78c-.18.18-.28.44-.28.72v1h1c.28 0 .54-.1.72-.28l.78-.78.78.78c.18.18.44.28.72.28h1v-1c0-.28-.1-.54-.28-.72l-.78-.78.78-.78c.18-.18.28-.44.28-.72v-1h-1c-.28 0-.54.1-.72.28l-.78.78-.78-.78c-.18-.18-.44-.28-.72-.28z"/>
  </g>
</svg>

<svg xmlns="http://www.w3.org/2000/svg" width="16" height="16" version="1.1">
 <defs>
  <style id="current-color-scheme" type="text/css">
   .ColorScheme-Text { color:#444444; } .ColorScheme-Highlight { color:#4285f4; }
  </style>
 </defs>
 <path style="opacity:0.3;fill:currentColor" class="ColorScheme-Text" d="M 15,1.01 1,15.01 H 10 V 10.01 H 15 Z"/>
 <path style="fill:currentColor" class="ColorScheme-Text" d="M 11,11.01 V 12.01 C 11,12.29 11.1,12.55 11.28,12.73 L 12.06,13.51 11.28,14.29 C 11.1,14.47 11,14.73 11,15.01 V 16.01 H 12 C 12.28,16.01 12.54,15.91 12.72,15.73 L 13.5,14.95 14.28,15.73 C 14.46,15.91 14.72,16.01 15,16.01 H 16 V 15.01 C 16,14.73 15.9,14.47 15.72,14.29 L 14.94,13.51 15.72,12.73 C 15.9,12.55 16,12.29 16,12.01 V 11.01 H 15 C 14.72,11.01 14.46,11.11 14.28,11.29 L 13.5,12.07 12.72,11.29 C 12.54,11.11 12.28,11.01 12,11.01 Z"/>
</svg>
